X: 605
T:John Brennan's
R:reel
Z:M. Hogan
N:Posted to the woodenflute mailing list November 2002
M:C|
L:1/8
K:D
|:A~F3 dFAF|DEFA B3d|e~B3 egfe|dfed BcdB|!
|A~F3 dFAF|DEFA B3f|~g2fg efdB|1 AFEF D3F:|2 AFEF D3A|!
|dcde fefg|a2ba afdf|e~B3 g~B3|fedf edBd|!
A~F3 ABdf|a2ba afdf|~g2fg efdB|AFEF D3A|!
|d3e ~f3g|a2ba afdf|e~B3 g~B3|fedf edBd|!
A~F3 ABdf|a2ba afdf|~g2fg efdB| AFEF D3F||!
<end>
<start>
